X:1
T:Title
L:1/8
M:4/4
K:Db
V:1 treble nm="Grand Piano"
V:1
 z4 z[Q:1/4=100] B,2 C | D3 G- G F2 _F | F2 F2 z2 _F=F | B3 A- AGFB | FG/F/ E2- EE=DF | %5
 E3 F- F G2 c | B=AGF- F z F_F | F3 C- C D2 G | F4- F B2 c | BAGF EDCD | G2 .G2 z2 CD | %11
 EFG=A BcBA |[M:5/8] c-c- c3 |[M:3/8] B2 c |[M:4/4] =d2 d2 c2 B2 | =d2 B4 Bc | =d3 c- c B2 A | %17
 G4- G E2 F | G2 G2 F2 E2 | G2 E2- E C2 D | G3 F- F _F2 G | F4- F B2 c | d2 B2- B A2 B | %23
 c2 A2- A C2 D | E2 G2 FEDC | B,6 z2 |] %26

